X: 1
T: Early Rising
M: 4/4
L: 1/8
R: reel
K: Dmaj
DFA=c BGAF|DFAF BE~E2|DFAF BFAd|gfed cAGE|
DFA=c BGAF|DFAF BE~E2|DFAF BFAe|faeg fdd2|
d2fd ceAd|BdAF GFED|A,DFA DFAd|fadf e2fg|
a3f gfed|edfd edBc|dedA BdAF|GBAF DBAF|
